X:1
T:Title
%%score { ( 1 3 ) | ( 2 4 ) }
L:1/8
Q:1/4=110
M:4/4
K:Eb
V:1 treble nm="Grand Piano"
V:3 treble 
V:2 bass 
V:4 bass 
V:1
 [EG]2 [EG]2 [EG]2 [EG]2 | [EG]>[DF] [EG]>[FA] [GB]2 [GB]>[Ac] | [GB]4 z4 | [FA]4 z4 | %4
w: Carrie~B.~Adams * * *||||
 G2 [EG]2 [EG]2 [EG]2 | [EG]>[DF] [EG]>A [B,GB]2 [GB]>[_Gc] | [Fd]2 [Fd]2 [Fd]2 [DB]2 | [Ec]4 z4 | %8
w: ||||
 [DAc]2 [DAB]2 [DAc]2 [DAB]2 | [EGc]2 [EGB]>[EGB] [EGB]2 [EGe]2 | [DAc]2 [DAB]2 [DAc]2 [DAB]2 | %11
w: |||
 [EGc]2 [EGB]2 z2 F2 | [Ge]2 [Ge]>[Ge] d2 G2 | c2 c>c [GB]2 [EG]2 | %14
w: |||
 [EA]2 [EB]>[Ec] [B,EB]2 [CFe]2 | [Ge]2 d-[Ad] [Ge]4 |] %16
w: ||
V:2
 [E,B,]2 [B,,B,]2 [E,B,]2 [B,,B,]2 | [E,B,]2 [B,,B,]2 [E,B,]2 [B,,B,]2 | %2
 [D,B,]2 B,,2 D,2 [B,,B,]2 | [E,B,]2 B,,2 [E,B,E]2 z2 | [E,B,E]2 [B,,B,]2 [E,B,]2 [B,,B,]2 | %5
 [E,B,]2 z z/ F/ E,2 [=E,B,]2 | [F,B,]2 F,,2 B,,2 D,2 | F,2 F,,2 B,,4 | F,2 B,,2 F,2 B,,2 | %9
 E,2 B,,>B,, E,2 B,,2 | F,2 B,,2 F,2 B,,2 | E,2 B,,2 [E,B,E]2 [D,=B,]2 | %12
 [C,C]2 [E,C]>[F,C][K:treble] [G,=B,F]2 [G,B,F]2 | [A,CE]2 [A,CE]>[A,DF][K:bass] [E,E]2 [E,B,]2 | %14
 [C,A,]2 [B,,G,]>[A,,A,] G,,2 A,,2 | [B,,B,]2 [B,,B,]2 [E,B,]4 |] %16
V:3
 x8 | x8 | z2 B,2 [B,FA]2 [FA]>[GB] | z2 B,2 G2 z2 | x8 | x8 | x8 | z2 F,2 [B,DB]4 | x8 | x8 | x8 | %11
 z4 G4 | x8 | x8 | x8 | z2 .F2 z4 |] %16
V:4
 x8 | x8 | x8 | x8 | x8 | z2 [B,,B,]2 z4 | x8 | x8 | x8 | x8 | x8 | x8 | x4[K:treble] x4 | %13
 x4[K:bass] x4 | x8 | x8 |] %16

